icons/evolvere-blue-folders-flat-vivid-dark-fallback/apps/64/typecatcher.svg

<?xml version="1.0" encoding="UTF-8" standalone="no"?>
<!-- Created with Inkscape (http://www.inkscape.org/) -->

<svg
   xmlns:dc="http://purl.org/dc/elements/1.1/"
   xmlns:cc="http://creativecommons.org/ns#"
   xmlns:rdf="http://www.w3.org/1999/02/22-rdf-syntax-ns#"
   xmlns:svg="http://www.w3.org/2000/svg"
   xmlns="http://www.w3.org/2000/svg"
   xmlns:sodipodi="http://sodipodi.sourceforge.net/DTD/sodipodi-0.dtd"
   xmlns:inkscape="http://www.inkscape.org/namespaces/inkscape"
   width="64"
   height="64"
   id="svg13094"
   version="1.1"
   inkscape:version="0.48.4 r9939"
   sodipodi:docname="typecatcher.svg">
  <sodipodi:namedview
     id="base"
     pagecolor="#ffffff"
     bordercolor="#666666"
     borderopacity="1.0"
     inkscape:pageopacity="0"
     inkscape:pageshadow="2"
     inkscape:zoom="8.0000004"
     inkscape:cx="35.899055"
     inkscape:cy="27.947609"
     inkscape:document-units="px"
     inkscape:current-layer="svg13094"
     showgrid="false"
     inkscape:snap-bbox="true"
     inkscape:bbox-paths="true"
     inkscape:bbox-nodes="true"
     inkscape:snap-bbox-edge-midpoints="true"
     inkscape:snap-bbox-midpoints="true"
     inkscape:object-paths="true"
     inkscape:snap-intersection-paths="true"
     inkscape:object-nodes="true"
     inkscape:snap-smooth-nodes="true"
     inkscape:snap-midpoints="true"
     inkscape:snap-object-midpoints="true"
     inkscape:snap-center="true"
     showguides="false"
     inkscape:guide-bbox="true"
     inkscape:window-width="1920"
     inkscape:window-height="1025"
     inkscape:window-x="-2"
     inkscape:window-y="32"
     inkscape:window-maximized="1"
     inkscape:snap-global="false"
     fit-margin-top="0"
     fit-margin-left="0"
     fit-margin-right="0"
     fit-margin-bottom="0"
     showborder="true"
     inkscape:showpageshadow="false"
     inkscape:snap-page="true">
    <inkscape:grid
       type="xygrid"
       id="grid3075"
       empspacing="5"
       visible="true"
       enabled="true"
       snapvisiblegridlinesonly="true"
       originx="1.6362304e-08px"
       originy="18px" />
    <sodipodi:guide
       orientation="0,1"
       position="-11,30"
       id="guide9148" />
    <sodipodi:guide
       orientation="1,0"
       position="32,70"
       id="guide9150" />
  </sodipodi:namedview>
  <defs
     id="defs13096" />
  <metadata
     id="metadata13099">
    <rdf:RDF>
      <cc:Work
         rdf:about="">
        <dc:format>image/svg+xml</dc:format>
        <dc:type
           rdf:resource="http://purl.org/dc/dcmitype/StillImage" />
        <dc:title />
      </cc:Work>
    </rdf:RDF>
  </metadata>
  <path
     id="path6538"
     d="m 0,4 0,30 0,28 2,2 30,0 30,0 2,-2 L 64,34 64,4 32,4 0,4 z"
     style="color:#000000;fill:#2e81df;fill-opacity:1;fill-rule:nonzero;stroke:none;stroke-width:2.28571415000000000;marker:none;visibility:visible;display:inline;overflow:visible;enable-background:accumulate"
     inkscape:connector-curvature="0" />
  <path
     style="color:#000000;fill:#6bb5ff;fill-opacity:1;fill-rule:nonzero;stroke:none;marker:none;visibility:visible;display:inline;overflow:visible;enable-background:accumulate"
     d="M 2 0 L 0 1 L 0 4 L 19.5625 4 L 39.125 4 L 64 4 L 64 1 L 62 0 L 39.125 0 L 19.5625 0 L 2 0 z "
     id="path6688" />
  <path
     d="M 64,6 62,4 64,3 z"
     id="path3028"
     style="fill:#4897ec;fill-opacity:1"
     inkscape:connector-curvature="0" />
  <g
     id="g3043"
     inkscape:export-filename="folder.png"
     inkscape:export-xdpi="90"
     inkscape:export-ydpi="90"
     transform="translate(-0.62500009,0.082283)" />
  <g
     id="scalable"
     transform="matrix(1.0385892,0,0,1.0385892,1214.7222,1878.8121)"
     inkscape:label="#g3701"
     style="fill:#ffffff" />
  <path
     style="fill:#7fbfff;fill-opacity:1;fill-rule:nonzero"
     d="M 0,3 0,6 2,4 z"
     id="path4298"
     inkscape:connector-curvature="0"
     sodipodi:nodetypes="cccc" />
  <path
     style="color:#000000;fill:#cbe0f4;fill-opacity:1;fill-rule:nonzero;stroke:none;stroke-width:2.28571415000000000;marker:none;visibility:visible;display:inline;overflow:visible;enable-background:accumulate"
     d="M 37.65625 16.75 C 26.491863 16.75 17.46875 25.804363 17.46875 36.96875 C 17.46875 39.10714 17.790931 41.159202 18.40625 43.09375 C 16.227697 44.252685 14.36632 45.912759 12.9375 47.90625 C 11.449672 45.639591 8.9139175 44.15625 6 44.15625 C 3.6528954 44.15625 1.5179517 45.128772 0 46.6875 L 0 62 L 2 64 L 32 64 L 62 64 L 64 62 L 64 34 L 64 18.0625 C 63.125367 17.913583 62.229321 17.8125 61.3125 17.8125 C 57.320729 17.8125 53.701403 19.292648 50.90625 21.71875 C 47.358635 18.638963 42.723026 16.75 37.65625 16.75 z "
     id="path6538-5" />
  <path
     inkscape:connector-curvature="0"
     id="path3021"
     style="font-size:30.10500907999999853px;font-style:normal;font-variant:normal;font-weight:bold;font-stretch:normal;line-height:125%;letter-spacing:0px;word-spacing:0px;fill:#00122b;fill-opacity:0.81468219;stroke:none;font-family:Serif;-inkscape-font-specification:Serif Bold"
     d="m 33.166586,44.939111 -1.091654,3.256457 c -0.09868,0.308382 -0.203535,0.672266 -0.314544,1.091654 -0.09868,0.407061 -0.148027,0.764777 -0.14802,1.07315 -7e-6,0.246705 0.04933,0.462568 0.14802,0.647591 0.09867,0.185029 0.228192,0.339217 0.388555,0.462565 0.160349,0.111018 0.339207,0.197364 0.536576,0.259037 0.209687,0.06168 0.425551,0.09251 0.647591,0.09251 l 1.591223,0 0,2.016784 -9.861885,0 0,-2.016784 0.462564,0 c 0.333047,2e-6 0.635256,-0.03701 0.906627,-0.111018 0.283705,-0.07401 0.542741,-0.209694 0.77711,-0.407056 0.246698,-0.209694 0.474898,-0.4934 0.684597,-0.85112 0.222028,-0.357714 0.444058,-0.820278 0.666092,-1.387696 l 8.215155,-22.27713 5.199231,0 7.919112,22.314136 c 0.185002,0.530412 0.376194,0.974474 0.573581,1.332187 0.20967,0.345384 0.431701,0.622924 0.666093,0.832617 0.246675,0.197363 0.505711,0.339217 0.77711,0.425559 0.271344,0.08635 0.555049,0.129521 0.85112,0.129518 l 0.684595,0 0,2.016784 -12.507757,0 0,-2.016784 1.480208,0 c 0.185008,3e-6 0.376202,-0.02467 0.57358,-0.07401 0.197344,-0.06168 0.370034,-0.148018 0.518073,-0.259036 0.160338,-0.123353 0.289856,-0.277537 0.388555,-0.462565 0.09866,-0.185024 0.148001,-0.407054 0.148021,-0.666095 -2e-5,-0.308372 -0.03703,-0.604413 -0.111018,-0.888124 -0.07402,-0.283702 -0.148038,-0.530403 -0.22203,-0.740104 l -1.332187,-3.793033 -9.214296,0 m 6.457409,-8.529698 c -0.1357,-0.431707 -0.277554,-0.881937 -0.42556,-1.350688 -0.135699,-0.481048 -0.277553,-0.968282 -0.425559,-1.461705 -0.1357,-0.493382 -0.271386,-0.980616 -0.407058,-1.461706 -0.123365,-0.49338 -0.234379,-0.962113 -0.333047,-1.406198 -0.11103,0.38241 -0.240546,0.801803 -0.388554,1.258178 -0.148033,0.456419 -0.308389,0.925151 -0.481067,1.406198 -0.160368,0.481087 -0.326891,0.962154 -0.49957,1.443202 -0.160368,0.481087 -0.314556,0.943651 -0.462566,1.387695 l -2.238814,6.4019 7.660076,0 -1.99828,-6.216874" />
  <g
     id="g3043-5"
     inkscape:export-filename="folder.png"
     inkscape:export-xdpi="90"
     inkscape:export-ydpi="90"
     transform="translate(70.259032,-2.124006)" />
  <g
     id="scalable-7"
     transform="matrix(1.0385892,0,0,1.0385892,1285.6062,1876.6058)"
     inkscape:label="#g3701"
     style="fill:#ffffff" />
</svg>

<svg xmlns="http://www.w3.org/2000/svg" viewBox="0 0 64 64"><g color="#000"><path d="m0 4v30 28l2 2h30 30l2-2v-28-30h-32-32" fill="#2e81df"/><path d="m2 0l-2 1v3h19.563 19.563 24.875v-3l-2-1h-22.875-19.563-17.563" fill="#6bb5ff"/></g><path d="m64 6l-2-2 2-1z" fill="#4897ec"/><path d="m0 3v3l2-2z" fill="#7fbfff"/><path d="m37.656 16.75c-11.164 0-20.19 9.05-20.19 20.22 0 2.138.322 4.19.938 6.125-2.179 1.159-4.04 2.819-5.469 4.813-1.488-2.267-4.02-3.75-6.938-3.75-2.347 0-4.482.973-6 2.531v15.313l2 2h30 30l2-2v-28-15.938c-.875-.149-1.771-.25-2.688-.25-3.992 0-7.611 1.48-10.406 3.906-3.548-3.08-8.183-4.969-13.25-4.969" fill="#cbe0f4" color="#000"/><path d="m33.17 44.939l-1.092 3.256c-.099.308-.204.672-.315 1.092-.099.407-.148.765-.148 1.073 0 .247.049.463.148.648.099.185.228.339.389.463.16.111.339.197.537.259.21.062.426.093.648.093h1.591v2.02h-9.862v-2.02h.463c.333 0 .635-.037.907-.111.284-.074.543-.21.777-.407.247-.21.475-.493.685-.851.222-.358.444-.82.666-1.388l8.215-22.277h5.199l7.919 22.314c.185.53.376.974.574 1.332.21.345.432.623.666.833.247.197.506.339.777.426.271.086.555.13.851.13h.685v2.02h-12.508v-2.02h1.48c.185 0 .376-.025.574-.074.197-.062.37-.148.518-.259.16-.123.29-.278.389-.463.099-.185.148-.407.148-.666 0-.308-.037-.604-.111-.888-.074-.284-.148-.53-.222-.74l-1.332-3.793h-9.214m6.457-8.53c-.136-.432-.278-.882-.426-1.351-.136-.481-.278-.968-.426-1.462-.136-.493-.271-.981-.407-1.462-.123-.493-.234-.962-.333-1.406-.111.382-.241.802-.389 1.258-.148.456-.308.925-.481 1.406-.16.481-.327.962-.5 1.443-.16.481-.315.944-.463 1.388l-2.239 6.402h7.66l-1.998-6.217" fill="#00122b" fill-opacity=".815"/></svg>
